<?xml version="1.0" encoding="UTF-8"?><map version="1.10" tiledversion="1.10.2" orientation="orthogonal" renderorder="right-down" width="24" height="20" tilewidth="32" tileheight="32" infinite="0"><tileset firstgid="1" name="terrain" tilewidth="32" tileheight="32" tilecount="3" columns="3"><image source="terrain.png" width="96" height="32"/></tileset><objectgroup id="1" name="00_Metadata"></objectgroup><layer id="2" name="01_Ground" width="24" height="20"><data encoding="csv">3,3,3,3,3,3,3,3,3,3,3,3,3,3,3,3,3,3,3,3,3,3,3,3,3,3,3,3,3,3,3,3,3,3,3,3,3,3,3,3,3,3,3,3,3,3,3,3,3,3,3,3,3,3,3,3,3,3,3,3,3,3,3,3,3,3,3,3,3,3,3,3,3,3,3,3,3,3,3,3,3,3,3,3,3,3,3,3,3,3,3,3,3,3,3,3,3,3,3,3,3,3,3,3,3,3,3,3,3,3,3,3,3,3,3,3,3,3,3,3,3,3,3,3,3,3,3,3,3,3,3,3,3,3,3,3,3,3,3,3,3,3,3,3,3,3,3,3,3,3,3,3,3,3,3,3,3,3,3,3,3,3,3,3,3,3,3,3,3,3,3,3,3,3,3,3,3,3,3,3,3,3,3,3,3,3,3,3,3,3,3,3,3,3,3,3,3,3,3,3,3,3,3,3,3,3,3,3,3,3,3,3,3,3,3,3,3,3,3,3,3,3,3,3,3,3,3,3,3,3,3,3,3,3,3,3,3,3,3,3,3,3,3,3,3,3,3,3,3,3,3,3,3,3,3,3,3,3,3,3,3,3,3,3,3,3,3,3,3,3,3,3,3,3,3,3,3,3,3,3,3,3,3,3,3,3,3,3,3,3,3,3,3,3,3,3,3,3,3,3,3,3,3,3,3,3,3,3,3,3,3,3,3,3,3,3,3,3,3,3,3,3,3,3,3,3,3,3,3,3,3,3,3,3,3,3,3,3,3,3,3,3,3,3,3,3,3,3,3,3,3,3,3,3,3,3,3,3,3,3,3,3,3,3,3,3,3,3,3,3,3,3,3,3,3,3,3,3,3,3,3,3,3,3,3,3,3,3,3,3,3,3,3,3,3,3,3,3,3,3,3,3,3,3,3,3,3,3,3,3,3,3,3,3,3,3,3,3,3,3,3,3,3,3,3,3,3,3,3,3,3,3,3,3,3,3,3,3,3,3,3,3,3,3,3,3,3,3,3,3,3,3,3,3,3,3,3,3,3,3,3,3,3,3,3,3,3,3,3,3,3,3,3,3,3,3,3,3,3,3</data></layer><objectgroup id="3" name="02_Road"></objectgroup><objectgroup id="4" name="03_Water"></objectgroup><objectgroup id="5" name="04_Decoration_Back"></objectgroup><objectgroup id="6" name="05_Plot_Base"></objectgroup><objectgroup id="7" name="06_Collision"><object id="1" x="64" y="96" width="640" height="64"/><object id="2" x="192" y="329.6" width="160" height="25.6"/><object id="3" x="80" y="364.8" width="160" height="14.4"/><object id="4" x="225.6" y="364.8" width="14.4" height="64"/><object id="5" x="489.6" y="406.4" width="57.6" height="28.8"/><object id="6" x="611.2" y="406.4" width="57.6" height="28.8"/><object id="7" x="560" y="172.8" width="112" height="102.4"/></objectgroup><objectgroup id="8" name="07_NPC_Path"></objectgroup><objectgroup id="9" name="08_Ghost_Path"></objectgroup><objectgroup id="10" name="09_Portal"></objectgroup><objectgroup id="11" name="10_Interaction"></objectgroup><objectgroup id="12" name="11_Decoration_Front"></objectgroup><objectgroup id="13" name="12_Weather"></objectgroup></map>